!!!OTL: Three Men Went A-Hunting
!!!ONM: 93.
**kern
*clefG2
*k[f#c#g#d#]
*E:
*M6/8
*MM144
{8e
=1
4e
8e
4f#
8f#
=2
4g#
[8b
4b]
8f#
=3
4f#
8f#
4e
8d#
=4
4.e
4r}
{8e
=5
4e
8e
4f#
16f#
16f#
=6
4g#
[8b
4b]
8f#
=7
4f#
8f#
4e
8d#
=8
4.e
4r}
{8e
=9
4e
8e
4f#
8f#
=10
4g#
[8b
4b]
8g#
=11
4g#
8g#
4f#
8e
=12
4f#}
{4g#
8r
8f#
=13
4e
8c#
4B
16G
16G
=14
8B
8B
8B
8B}
{8B
8B
=15
4e
8e
4f#
8d#
=16
4e
8r}
=||
{4B
8B
=17
4e
8e
4f#
8f#
=18
4g#
8r
4b
8r}
=19
{8e
8e
8e
4f#
8f#
=20
4g#
8r
4b
8r}
=21
{4e
8e
4f#
8f#
=22
4g#
8r
4b
8r}
=23
{8f#
8f#
8a
8g#
8g#
8f#
=24
4.e
4r}
==
*-
!!!CNT: Folksongs of Maritime Canada
!!!MRD: 1928///-1932///
!!!OCL: Helen Creighton
!!!YOR: Songs and Ballads from Nova Scotia
!!!PPR: J.M. Dent & Sons, Limited
!!!PPP: Toronto, Canada
!!!PDT: 1932///
!!!reprint: Dover Publications, 1992: ISBN 0-486-21703-5
!!!ENC1: Craig Stuart Sapp (music and bibliographic data)                       
!!!ENC2: Marcus Pearce (phrase markings and key designations)                   
!!!ENC3: Darrell Conklin (phrase markings and key designations)   
!!!END: 2002/04/10/
!!!EEV: 2004/06/05
!!!MPN: Mr. Richard Hartlan
!!!PPG: 201
!!!EFL: 94/152
!!!ARE: Canada; Nova Scotia
!!!verses: 7
!!!VTS: 4114209484
